img/icon/menu-icon/lessons.svg

<svg width="24" height="24" viewBox="0 0 24 24" fill="none" xmlns="http://www.w3.org/2000/svg">
<path d="M15.3333 15.3333H22M15.3333 18.6667H22M15.3333 22H19.1444M22 10.8889V7.48889C22 6.26222 21.0056 5.26667 19.7778 5.26667H12.5878C12.22 5.26667 11.8756 5.08444 11.6689 4.78L10.1078 2.48556C9.90111 2.18222 9.55778 2 9.19 2H4.22222C2.99444 2 2 2.99444 2 4.22222V17.5556C2 18.7833 2.99444 19.7778 4.22222 19.7778H10.8889" stroke="#848E9F" stroke-width="1.5" stroke-linecap="round" stroke-linejoin="round"/>
</svg>

<svg width="24" height="24" fill="none" xmlns="http://www.w3.org/2000/svg"><path d="M15.333 15.333H22m-6.667 3.334H22M15.333 22h3.811M22 10.889v-3.4a2.222 2.222 0 0 0-2.222-2.222h-7.19c-.368 0-.712-.183-.92-.487l-1.56-2.294A1.11 1.11 0 0 0 9.19 2H4.222A2.222 2.222 0 0 0 2 4.222v13.334c0 1.227.994 2.222 2.222 2.222h6.667" stroke="#848E9F" stroke-width="1.5" stroke-linecap="round" stroke-linejoin="round"/></svg>
